X: 84
T: Ma maistresse
N: Derived from Ock3012-Ma_maistresse.krn
C: Johannes Ockeghem
%%abc-version 2.0
%%abcx-abcm2ps-target-version 5.9.1 (29 Sep 2008)
%%abc-creator hum2abc beta
%%abcx-conversion-date 2019/02/17 07:26:16
%%abc-edited-by Jesse Rodin
%%abc-edited-by Chris Gage 06-25-2012
%%abcx-initial-encoding-date 2015/10/29/
%%humdrum-veritas 3014058011
%%humdrum-veritas-data 3879451679
%%linebreak <none>
%%barnumbers 0
L: 1/4
M: 3/1
Q: 1/2=120
V: 1 clef=treble
V: 2 clef=treble-8
V: 3 clef=treble-8
K: F
[V:1] c8A4 | 
[V:2] f12 | 
[V:3] F6G2A4 | 
[V:1] d6B2B3G | 
[V:2] d4g6e2 | 
[V:3] B6G2G4 | 
[V:1] c4d2f4e2 | 
[V:2] e3cf4g4 | 
[V:3] A4F4c4 | 
[V:1] d2c4A2G4 | 
[V:2] f4c2f4e2 | 
[V:3] F8G4 | 
[V:1] F6E2D2C2 | 
[V:2] d2B2A4B2A2 | 
[V:3] B3AF2c2d2e2 | 
[V:1] A3G/A/GFF4E2 | 
[V:2] F2c4F2G4 | 
[V:3] f2e4c4B2 | 
[V:1] F4z4F4 | 
[V:2] F8z2A2 | 
[V:3] c6A3Fc2 | 
[V:1] E2C2D4C2E2 | 
[V:2] G2c4=B2c2G2- | 
[V:3] B2A2G4g4 | 
[V:1] D2G4F2G2A2 | 
[V:2] GABcA4G2c2 | 
[V:3] z2d2c3de4 | 
[V:1] G2c4B2c2d2 | 
[V:2] B2c2d4c2f2 | 
[V:3] d2c2f3ga4 | 
[V:1] c2f4e2f4 | 
[V:2] e2f2g4f2a2 | 
[V:3] z2a2g2b2a2f2 | 
[V:1] z4f4e2g2- | 
[V:2] g2c'4=b2c'3b | 
[V:3] g2e2d4c4 | 
[V:1] g2c2d2e4e2 | 
[V:2] g2a2g6e2 | 
[V:3] c4G4z2c2 | 
[V:1] e4e4e4 | 
[V:2] c2g2z2c3BA2 | 
[V:3] A2G2c2z2g2a2 | 
[V:1] g3fd4e4- | 
[V:2] G2B3AB2A2G2 | 
[V:3] b4g4a2b2 | 
[V:1] e4f4e4- | 
[V:2] A3GA2B2c2G2 | 
[V:3] c'6b2g4 | 
[V:1] e2c2d2c4=B2 | 
[V:2] c3AB2c2d4 | 
[V:3] a4g2g4f2 | 
[V:1] c4z4A2B2 | 
[V:2] c12 | 
[V:3] g8e4 | 
[V:1] d2c4A2B2G2 | 
[V:2] z4z2c2d2e2 | 
[V:3] f3ec4B4- | 
[V:1] F4z4c4 | 
[V:2] f6d2e2c2 | 
[V:3] B2A2F2B2c2A2 | 
[V:1] d6c2B3A | 
[V:2] B4z2B2d2e2 | 
[V:3] B8G4 | 
[V:1] A4z4c4 | 
[V:2] f4a6d2 | 
[V:3] F8A4 | 
[V:1] d6f4ed | 
[V:2] d4z2d2f2g2 | 
[V:3] B12 | 
[V:1] c6d2e2de | 
[V:2] a6f2g2e2 | 
[V:3] A8G4 | 
[V:1] f4e2d4^c2 | 
[V:2] d2a3gf2e4 | 
[V:3] B2A2c2d2A4 | 
[V:1] d8c4 | 
[V:2] d6cBA3G | 
[V:3] a4d4e4 | 
[V:1] B4A2A4G2 | 
[V:2] d6c2A2B2 | 
[V:3] f6e2c2d2 | 
[V:1] B3AGFF4E2 | 
[V:2] d2c2F4G4 | 
[V:3] f3edcc4B2 | 
[V:1] F4z4f4 | 
[V:2] F8a4 | 
[V:3] c8F4 | 
[V:1] e2d3cc3BAG | 
[V:2] g2f4e2f4 | 
[V:3] G2B4c2F4- | 
[V:1] c2d2f4e2d2 | 
[V:2] a4z2a2g2b2- | 
[V:3] F8G4 | 
[V:1] g4f4e2d2- | 
[V:2] b2a4g4f2 | 
[V:3] G2c2d2B2c2d2- | 
[V:1] dcBAG2c4=B2 | 
[V:2] a2g2e2f2d4 | 
[V:3] d2G2c2F2G4 | 
[V:1] c12 ||  
[V:2] c12 ||  
[V:3] g12 ||  
[V:1]  [K:F] [K:clef=treble][M:2/1]A8 | 
[V:2]  [K:F] [K:clef=treble-8][M:2/1]f8 | 
[V:3]  [K:F] [K:clef=treble-8][M:2/1]d8 | 
[V:1] c4c4 | 
[V:2] e4e4 | 
[V:3] A4A4 | 
[V:1] d6c2 | 
[V:2] d8- | 
[V:3] a8 | 
[V:1] A4z4 | 
[V:2] d4d4 | 
[V:3] f8 | 
[V:1] d4c4 | 
[V:2] f4e4 | 
[V:3] d4A2c2 | 
[V:1] d4e4 | 
[V:2] f4g4 | 
[V:3] B4G4 | 
[V:1] f4d4- | 
[V:2] a4f4 | 
[V:3] d8 | 
[V:1] d4c4 | 
[V:2] e8 | 
[V:3] A8 | 
[V:1] d6c2 | 
[V:2] d8 | 
[V:3] B8 | 
[V:1] A4=B4 | 
[V:2] z4d4 | 
[V:3] c4G4 | 
[V:1] c4A4- | 
[V:2] A8 | 
[V:3] c8 | 
[V:1] A4G4 | 
[V:2] B8 | 
[V:3] d8 | 
[V:1] A8 | 
[V:2] A4A4 | 
[V:3] e8 | 
[V:1] B2A2G2F2 | 
[V:2] d8 | 
[V:3] f4f4 | 
[V:1] E4A4- | 
[V:2] c8 | 
[V:3] g4e4- | 
[V:1] A4G4- | 
[V:2] A4B4 | 
[V:3] e2c2d4 | 
[V:1] G4F4- | 
[V:2] c4F4 | 
[V:3] e4c4- | 
[V:1] F4E4 | 
[V:2] G8 | 
[V:3] c4B4 | 
[V:1] F4z4 | 
[V:2] F8 | 
[V:3] c8 | 
[V:1] A6=B2 | 
[V:2] z8 | 
[V:3] f6g2 | 
[V:1] c6d2 | 
[V:2] A6=B2 | 
[V:3] a8 | 
[V:1] e4e4 | 
[V:2] c4c4 | 
[V:3] g4g4 | 
[V:1] f6e2 | 
[V:2] d8 | 
[V:3] f4d4 | 
[V:1] c8 | 
[V:2] z4e4 | 
[V:3] A8 | 
[V:1] d6c2 | 
[V:2] f8- | 
[V:3] a8 | 
[V:1] A4G4 | 
[V:2] f4e4 | 
[V:3] d4e4 | 
[V:1] =B6AB | 
[V:2] d4c4 | 
[V:3] f4e4- | 
[V:1] c6A2 | 
[V:2] A8 | 
[V:3] e4c4 | 
[V:1] =B4d4- | 
[V:2] G8 | 
[V:3] d4e4 | 
[V:1] d2c2=B2A2 | 
[V:2] d8- | 
[V:3] f8- | 
[V:1] =B4c4- | 
[V:2] d4c4 | 
[V:3] f4e4- | 
[V:1] c2A2A4- | 
[V:2] A8 | 
[V:3] e4c4 | 
[V:1] A4^G4 | 
[V:2] =B8 | 
[V:3] d8 | 
[V:1] A8 |]  
[V:2] A8 |]  
[V:3] e8 |]  



